X: 1
T: The Ferry Louper
T: 8 x 32J 3C (Roy Goldring, 24 Graded & Social)
P: Castle Hill
C: Muriel Johnstone, "A Score & More"
C: arr. T. Traub 6-27-2007
R: Jig
M: 6/8
K: G
L: 1/8
|: D |"G"G3 BGB|dBd gdB|"Am"cAc ece|"D"afd cBA|"G"G3 BGB |dBd gdB|"D"c2 A F2 d|"G"BGG G2 :|
d |"G"b3 agf |"Em"gfe "D"fed|"Am"e2 c "A7"A2 G|"D"FAA A2 a|"G"b3 "D"agf|"Em"gfe "D"fed|"C"e2 c "D"A2 d|"G"BGG G2 d||
"G"b3 agf |"Em"gfe "D"fed|"Am"e2 c "A7"A2 G|"D"FGA AGF|"G"G3 BGB|dBd gdB|"Am"c2 A "D"F2 d|"G"BGG G2 |]
